X:1
T:Wohlfahrt Violin Studies - #1
T:Wohlfahrt Foundation Studies - No. 4
T: Op 54 No 2
T:Franz Wohlfahrt
C:Franz Wohlfahrt
%%score 1 { 2 | 3 }
L:1/8
Q:1/4=120
M:4/4
K:C
V:1 treble nm="Violin"
V:2 treble nm="Piano"
V:3 bass 
V:1
"G""^4." (B d c e) d4 | (B d c e) d4 | (g ^f a f)"D7" c4 | (c B d B)"G" G4 | (B d c e) d4 | %5
 (d g ^f a) g4 | (^f a g b) (a g B ^c) |"D" (e d A ^F) D z z2 |"D" (d B c ^f) a4 | %9
"G" (B e d g) b4 |"D" (d B c ^f) a4 |"G" (B e d B) G4 | G ^F A G E4 | c B d c A4 | %14
 G c B e ^d ^f b a | g ^f a g e b g e | =d B c ^f a4 | B e d B G4 | D B, C ^F A4 | B, E D B, G,4 | %20
 (B, D ^C E) D4 | (B d ^c e) d4 | b ^f d B g f d ^c | ^c B ^F D B, z z2 |"G" (B d c e) d4 | %25
 (B d c e) d4 |"D7" (g ^f a f) c4 |"G" (c B d B) G4 | F G, _A, G, F4 | E A G E C4 | %30
 B, D C E D G ^F A | G E D B, G, z z2 |] %32
V:2
"G" ((Bdce)) d4 | ((Bdce)) d4 | ((g^faf))"D7" c4 | ((cBdB))"G" G4 | ((Bdce)) d4 | ((dg^fa)) g4 | %6
 ((^fagb)) ((agB^c)) |"D" ((edA^F)) D z z2 |"D" ((dBc^f)) a4 |"G" ((Bedg)) b4 |"D" ((dBc^f)) a4 | %11
"G" ((BedB)) G4 |"^(Need Help with these chords)" G^FAG E4 | cBdc A4 | GcBe ^d^fba | g^fag ebge | %16
 =dBc^f a4 | BedB G4 | DB,C^F A4 | B,EDB, G,4 | ((B,D^CE)) D4 | ((Bd^ce)) d4 | b^fdB gfd^c | %23
 ^cB^FD B, z z2 |"G" ((Bdce)) d4 | ((Bdce)) d4 |"D7" ((g^faf)) c4 |"G" ((cBdB)) G4 | FG,_A,G, F4 | %29
 EAGE C4 | B,DCE DG^FA | GEDB, G, z z2 |] %32
V:3
 [G,B,]4 [G,B,]4 | [G,B,]4 [G,B,]4 | [G,B,]4 [D,^F,]4 | [D,^F,]4 [G,B,]4 | [G,B,]4 [G,B,]4 | %5
 [G,B,]4 [G,B,]4 | [D,^F,A,]2 [D,G,B,]2 [D,F,A,]2 [A,,^C,E,A,]2 | [D,^F,]4 [D,F,]4 | %8
 [D,^F,]4 [D,F,]4 | [G,B,]4 [G,B,]4 | [D,^F,]4 [D,F,]4 | [G,B,]4 [G,B,]4 | [C,E,G,]4 [C,E,G,]4 | %13
 [A,,C,E,]4 [A,,C,E,]4 | [C,E,G,]4 [B,,^D,^F,A,]4 | [E,G,B,]4 [E,G,B,]4 | [D,^F,]4 [D,F,]4 | %17
 [G,B,]4 [G,B,]4 | [D,^F,]4 [D,F,]4 | [G,B,]4 [G,B,]4 | [G,B,]4 [G,B,]4 | [G,B,]4 [G,B,]4 | %22
 [B,,^D,^F,B,]4 [^F,,^A,,^C,G,]4 | [B,,^D,^F,B,]8 | z8 | z8 | z8 | z8 | z8 | z8 | z8 | z8 |] %32

